X:8012
T:Highland Mary
R:Reel
C:Trad.
N:modified to match more common version
O:England, Morris
Z:Paul Hardy's Session Tunebook 2015 (see www.paulhardy.net). Creative Commons cc by-nc-sa licenced.
M:4/4
L:1/8
Q:1/4=150
K:G
D2|"G"G2 AG "D"FE D2|"G"G2 AB "C"c2 Bc|"G"d2de dcBA|"A"GABG "D"D2 (3DEF|
"G"G2 AG "D"FE D2|"G"G2 AB "C"c2 Bc|"G"d2de dcBA|"D7"G2 F2 "G"G2:|
|:D2|"G"GABc d2 d2|"C"edcB "D"c2 Bc|"G"d2de dcBA|"A"GABG "D"D2 (3DEF|
"G"G2 AG "D"FE D2|"G"G2 AB "C"c2 Bc|"G"d2de dcBA|"D7"G2 F2 "G"G2:|

